X: 27
T:Golden Keyboard, The
M:C|
L:1/8
Q:200
C:Martin Milhair
S:THSP
R:reel
D:
Z:
K:Edor
"Em"BGEF GFGA|B2gB fBeB|BGEF GBAG|"D"(3FED AD BDAF|
"Em"~E3F GFGA|B2gB fBec|"D"d2ce dBAF|DEFA "Em"GEE2:|
|:"Em"Be~e2 Be ~e2|Beef "A"edBc|"D"dA~A2 fAeA|"Bm"d2ce dBAF|
"Em"~E3F GFGA|B2gB fBec|"D"d2ce dBAF|DEFA "Em"GEE2:||
